SharedPackages/Infrastructure/DesignResourcesKitIcons/Sources/DesignResourcesKitIcons/DesignSystemImages.xcassets/Color/24px/Folder-Color-24.imageset/Folder-Color-24.svg

<svg width="24" height="24" viewBox="0 0 24 24" fill="none" xmlns="http://www.w3.org/2000/svg">
<path d="M9.5 3.875H7C4.58375 3.875 2.625 5.83375 2.625 8.25V15.75C2.625 18.1662 4.58375 20.125 7 20.125H17C19.4162 20.125 21.375 18.1662 21.375 15.75V10.75C21.375 8.33375 19.4162 6.375 17 6.375H14.5C13.5164 6.375 12.5902 5.91189 12 5.125C11.4098 4.33811 10.4836 3.875 9.5 3.875Z" fill="#A1D0F7"/>
<path d="M9.5 3.875H7C4.58375 3.875 2.625 5.83375 2.625 8.25V10.125H21.375L18.875 6.375H14.5C13.5164 6.375 12.5902 5.91189 12 5.125C11.4098 4.33811 10.4836 3.875 9.5 3.875Z" fill="#4397E0"/>
<path d="M9.29358 3C10.6095 3 11.8326 3.67785 12.53 4.7937C12.999 5.54409 13.8215 6 14.7064 6H17C19.7614 6 22 8.23858 22 11V16C22 18.7614 19.7614 21 17 21H7C4.23858 21 2 18.7614 2 16V8C2 5.23858 4.23858 3 7 3H9.29358ZM3.25 11V16C3.25 18.0711 4.92893 19.75 7 19.75H17C19.0711 19.75 20.75 18.0711 20.75 16V11H3.25ZM7 4.25C4.92893 4.25 3.25 5.92893 3.25 8V9.75H20.5364C20.0216 8.29355 18.6327 7.25 17 7.25H14.7064C13.3905 7.25 12.1674 6.57215 11.47 5.4563C11.001 4.70591 10.1785 4.25 9.29358 4.25H7Z" fill="#045EB2"/>
</svg>

<svg fill="none" viewBox="0 0 24 24" xmlns="http://www.w3.org/2000/svg">
  <path fill="#8FABF9" d="M9.5 3.875H7A4.375 4.375 0 0 0 2.625 8.25v7.5A4.375 4.375 0 0 0 7 20.125h10a4.375 4.375 0 0 0 4.375-4.375v-5A4.375 4.375 0 0 0 17 6.375h-2.5c-.984 0-1.91-.463-2.5-1.25a3.125 3.125 0 0 0-2.5-1.25Z"/>
  <path fill="#7295F6" d="M9.5 3.875H7A4.375 4.375 0 0 0 2.625 8.25v1.875h18.75l-2.5-3.75H14.5c-.984 0-1.91-.463-2.5-1.25a3.125 3.125 0 0 0-2.5-1.25Z"/>
  <path fill="url(#Folder-Color-24_svg__a)" d="M9.294 3c1.316 0 2.539.678 3.236 1.794A2.567 2.567 0 0 0 14.706 6H17a5 5 0 0 1 5 5v5a5 5 0 0 1-5 5H7a5 5 0 0 1-5-5V8a5 5 0 0 1 5-5h2.294ZM3.25 11v5A3.75 3.75 0 0 0 7 19.75h10A3.75 3.75 0 0 0 20.75 16v-5H3.25ZM7 4.25A3.75 3.75 0 0 0 3.25 8v1.75h17.286A3.751 3.751 0 0 0 17 7.25h-2.294a3.816 3.816 0 0 1-3.236-1.794A2.567 2.567 0 0 0 9.294 4.25H7Z"/>
  <defs>
    <linearGradient id="Folder-Color-24_svg__a" x1="12" x2="12" y1="3" y2="21" gradientUnits="userSpaceOnUse">
      <stop stop-color="#3969EF"/>
      <stop offset="1" stop-color="#1E42A4"/>
    </linearGradient>
  </defs>
</svg>
